.local/share/icons/Gruvbox-Plus-Dark/mimetypes/scalable/application-vnd.oasis.opendocument.drawing.svg

<svg width="256" height="256" viewBox="0 0 256 256" fill="none" xmlns="http://www.w3.org/2000/svg">
<g opacity="0.4" filter="url(#filter0_f)">
<path d="M55.0839 15.5636H155.608L216.009 75.7129L216.011 224.609C216.011 233.52 208.749 240.737 199.838 240.737H55.0838C46.1734 240.737 39 233.564 39 224.654V31.6474C39 22.737 46.1734 15.5636 55.0838 15.5636H55.0839Z" fill="#282828"/>
</g>
<path d="M55.0839 15H155.608L216.009 75.1493L216.011 224.045C216.011 232.956 208.749 240.174 199.838 240.174H55.0838C46.1734 240.174 39 233 39 224.09V31.0838C39 22.1734 46.1734 15 55.0838 15H55.0839Z" fill="#ebdbb2"/>
<path opacity="0.2" d="M199.838 240.174C208.749 240.174 216.011 232.956 216.011 224.046L216.01 186.5H39V224.09C39 233 46.1734 240.174 55.0838 240.174H199.838Z" fill="url(#paint0_linear)"/>
<path fill-rule="evenodd" clip-rule="evenodd" d="M155.608 20.3191H55.0839C49.1112 20.3191 44.3191 25.1111 44.3191 31.0838V224.09C44.3191 230.063 49.1111 234.855 55.0838 234.855H199.838C205.83 234.855 210.692 229.999 210.692 224.046V75.1493L155.608 20.3191ZM155.608 15H55.0839C46.1735 15 39 22.1734 39 31.0838V224.09C39 233 46.1734 240.174 55.0838 240.174H199.838C208.749 240.174 216.011 232.956 216.011 224.045L216.009 75.1493L155.608 15Z" fill="url(#paint1_linear)"/>
<path d="M99.8948 226.48C108.935 226.48 112.175 218.92 112.175 212C112.175 205.08 108.935 197.52 99.8948 197.52C90.8948 197.52 87.6148 205.08 87.6148 212C87.6148 218.92 90.8948 226.48 99.8948 226.48ZM99.8948 221.88C94.4548 221.88 92.5748 216.56 92.5748 212C92.5748 207.68 94.4548 202.12 99.8948 202.12C105.335 202.12 107.215 207.4 107.215 212C107.215 216.28 105.295 221.88 99.8948 221.88ZM117.99 198V226H126.47C136.75 226 140.11 218.4 140.11 212C140.11 205.04 136.43 198 126.63 198H117.99ZM127.15 221.48H122.79V202.52H127.59C132.91 202.52 135.15 207.28 135.15 212C135.15 216.4 133.11 221.48 127.15 221.48ZM157.2 226.48C163 226.48 167.48 222.64 167.48 215.52V211.64H157.68V216.16H162.6V216.6C162.6 219.52 160.32 221.84 157.2 221.84C152 221.84 149.88 217.04 149.88 212C149.88 207.64 151.56 202.16 157.2 202.16C159.84 202.16 161.48 203.76 162.72 205.6L167 203.16C165.16 200.24 162.6 197.52 157.2 197.52C148.8 197.52 144.92 205.16 144.92 212C144.92 219.32 148.56 226.48 157.2 226.48Z" fill="url(#paint2_linear)"/>
<path d="M125.448 43C123.973 43 122.79 44.0682 122.79 45.4V51.25C118.116 53.1014 114.814 57.2928 114.814 62.1946C114.814 68.8128 120.776 74.1913 128.108 74.1913C135.44 74.1913 141.401 68.8128 141.401 62.1946C141.401 57.2928 138.099 53.1014 133.425 51.2468V45.4C133.425 44.0682 132.242 43 130.766 43H125.448ZM112.406 71.1924L98.3621 105.383H82.8298C82.4572 105.36 82.0837 105.411 81.7316 105.531C81.3795 105.652 81.0559 105.84 80.7799 106.084C80.5169 106.317 80.3106 106.604 80.1764 106.924C80.0421 107.244 79.9833 107.589 80.0041 107.934C80.0967 109.253 81.3651 110.265 82.8298 110.182H122.79V117.379C122.79 118.711 123.973 119.779 125.448 119.779H130.766C132.243 119.779 133.425 118.711 133.425 117.379V110.182H173.305C174.262 110.191 175.153 109.74 175.642 108.992C175.876 108.63 176 108.211 176 107.783C176 107.355 175.876 106.935 175.642 106.573C175.153 105.824 174.26 105.373 173.305 105.384H157.85L143.812 71.1924C140.755 75.5617 135.633 78.4127 129.934 78.9163L141.236 105.383H133.425V98.1848C133.425 96.853 132.242 95.7848 130.766 95.7848H125.448C123.973 95.7848 122.79 96.853 122.79 98.1848V105.383H114.979L126.278 78.9163C120.581 78.4106 115.462 75.5606 112.406 71.1924V71.1924ZM94.5413 114.754L83.739 140.998C83.5572 141.508 83.5572 142.063 83.739 142.573L88.2276 156.069V160.567C88.2166 161.431 88.7169 162.235 89.5457 162.676C89.9585 162.889 90.4186 163 90.8858 163C91.353 163 91.8131 162.889 92.2259 162.676C93.0557 162.235 93.555 161.429 93.545 160.567V156.067L111.077 114.754H94.5413ZM145.139 114.754L162.67 156.069V160.567C162.659 161.431 163.16 162.235 163.99 162.676C164.402 162.889 164.862 163 165.329 163C165.796 163 166.256 162.889 166.669 162.676C167.498 162.235 167.999 161.429 167.988 160.567V156.067L172.475 142.572C172.641 142.068 172.683 141.485 172.475 140.998L161.673 114.754H145.139Z" fill="url(#paint3_linear)"/>
<path opacity="0.25" d="M155.608 17V61.2306C155.608 70.141 162.867 77.1605 171.777 77.1605L216.009 77.1493V75.1493L155.608 17Z" fill="#282828"/>
<path d="M155.608 15V59.2306C155.608 68.141 162.867 75.1605 171.777 75.1605L216.009 75.1493L155.608 15Z" fill="url(#paint4_linear)"/>
<defs>
<filter id="filter0_f" x="23.8778" y="0.441412" width="207.255" height="255.418" filterUnits="userSpaceOnUse" color-interpolation-filters="sRGB">
<feFlood flood-opacity="0" result="BackgroundImageFix"/>
<feBlend mode="normal" in="SourceGraphic" in2="BackgroundImageFix" result="shape"/>
<feGaussianBlur stdDeviation="7.5611" result="effect1_foregroundBlur"/>
</filter>
<linearGradient id="paint0_linear" x1="39" y1="186.5" x2="39" y2="240.174" gradientUnits="userSpaceOnUse">
<stop offset="1e-07" stop-color="#fabd2f"/>
<stop offset="0.5" stop-color="#fe8019"/>
<stop offset="1" stop-color="#fe8019"/>
</linearGradient>
<linearGradient id="paint1_linear" x1="39" y1="15" x2="39" y2="240.174" gradientUnits="userSpaceOnUse">
<stop offset="1e-07" stop-color="#fabd2f"/>
<stop offset="0.5" stop-color="#fe8019"/>
<stop offset="1" stop-color="#fe8019"/>
</linearGradient>
<linearGradient id="paint2_linear" x1="39" y1="187" x2="39" y2="240" gradientUnits="userSpaceOnUse">
<stop offset="1e-07" stop-color="#fabd2f"/>
<stop offset="0.5" stop-color="#fe8019"/>
<stop offset="1" stop-color="#fe8019"/>
</linearGradient>
<linearGradient id="paint3_linear" x1="80" y1="43" x2="80" y2="163" gradientUnits="userSpaceOnUse">
<stop offset="1e-07" stop-color="#fabd2f"/>
<stop offset="0.5" stop-color="#fe8019"/>
<stop offset="1" stop-color="#fe8019"/>
</linearGradient>
<linearGradient id="paint4_linear" x1="155.608" y1="15" x2="155.608" y2="75.1605" gradientUnits="userSpaceOnUse">
<stop offset="1e-07" stop-color="#fabd2f"/>
<stop offset="0.5" stop-color="#fe8019"/>
<stop offset="1" stop-color="#fe8019"/>
</linearGradient>
</defs>
</svg>

<svg width="256" height="256" fill="none" version="1.1" viewBox="0 0 256 256" xmlns="http://www.w3.org/2000/svg">
  <path d="m55.08 15h100.5l60.4 60.15 2e-3 148.9c0 8.911-7.262 16.13-16.17 16.13h-144.8c-8.91 0-16.08-7.174-16.08-16.08v-193c0-8.91 7.173-16.08 16.08-16.08h1e-4z" fill="#ebdbb2"/>
  <path d="m199.8 240.2c8.911 0 16.17-7.218 16.17-16.13l-1e-3 -37.55h-177v37.59c0 8.91 7.173 16.08 16.08 16.08h144.8z" fill="url(#paint0_linear)" opacity=".2"/>
  <path d="m155.6 20.32h-100.5c-5.973 0-10.76 4.792-10.76 10.76v193c0 5.973 4.792 10.76 10.76 10.76h144.8c5.992 0 10.85-4.856 10.85-10.81v-148.9l-55.08-54.83zm0-5.319h-100.5c-8.91 0-16.08 7.173-16.08 16.08v193c0 8.91 7.173 16.08 16.08 16.08h144.8c8.911 0 16.17-7.218 16.17-16.13l-2e-3 -148.9-60.4-60.15z" clip-rule="evenodd" fill="url(#paint1_linear)" fill-rule="evenodd"/>
  <path d="m99.89 226.5c9.04 0 12.28-7.56 12.28-14.48s-3.24-14.48-12.28-14.48c-9 0-12.28 7.56-12.28 14.48s3.28 14.48 12.28 14.48zm0-4.6c-5.44 0-7.32-5.32-7.32-9.88 0-4.32 1.88-9.88 7.32-9.88 5.44 0 7.32 5.28 7.32 9.88 0 4.28-1.92 9.88-7.32 9.88zm18.1-23.88v28h8.48c10.28 0 13.64-7.6 13.64-14 0-6.96-3.68-14-13.48-14h-8.64zm9.16 23.48h-4.36v-18.96h4.8c5.32 0 7.56 4.76 7.56 9.48 0 4.4-2.04 9.48-8 9.48zm30.05 5c5.8 0 10.28-3.84 10.28-10.96v-3.88h-9.8v4.52h4.92v0.44c0 2.92-2.28 5.24-5.4 5.24-5.2 0-7.32-4.8-7.32-9.84 0-4.36 1.68-9.84 7.32-9.84 2.64 0 4.28 1.6 5.52 3.44l4.28-2.44c-1.84-2.92-4.4-5.64-9.8-5.64-8.4 0-12.28 7.64-12.28 14.48 0 7.32 3.64 14.48 12.28 14.48z" fill="url(#paint2_linear)"/>
  <path d="m125.4 43c-1.475 0-2.658 1.068-2.658 2.4v5.85c-4.674 1.851-7.976 6.043-7.976 10.94 0 6.618 5.962 12 13.29 12s13.29-5.378 13.29-12c0-4.902-3.302-9.093-7.976-10.95v-5.847c0-1.332-1.183-2.4-2.659-2.4h-5.318zm-13.04 28.19-14.04 34.19h-15.53c-0.3726-0.023-0.7461 0.028-1.098 0.148-0.3521 0.121-0.6757 0.309-0.9517 0.553-0.263 0.233-0.4693 0.52-0.6035 0.84-0.1343 0.32-0.1931 0.665-0.1723 1.01 0.0926 1.319 1.361 2.331 2.826 2.248h39.96v7.197c0 1.332 1.183 2.4 2.658 2.4h5.318c1.477 0 2.659-1.068 2.659-2.4v-7.197h39.88c0.957 9e-3 1.848-0.442 2.337-1.19 0.234-0.362 0.358-0.781 0.358-1.209s-0.124-0.848-0.358-1.21c-0.489-0.749-1.382-1.2-2.337-1.189h-15.46l-14.04-34.19c-3.057 4.369-8.179 7.22-13.88 7.724l11.3 26.47h-7.811v-7.198c0-1.332-1.183-2.4-2.659-2.4h-5.318c-1.475 0-2.658 1.068-2.658 2.4v7.198h-7.811l11.3-26.47c-5.697-0.5057-10.82-3.356-13.87-7.724zm-17.86 43.56-10.8 26.24c-0.1818 0.51-0.1818 1.065 0 1.575l4.489 13.5v4.498c-0.011 0.864 0.4893 1.668 1.318 2.109 0.4128 0.213 0.8729 0.324 1.34 0.324s0.9273-0.111 1.34-0.324c0.8298-0.441 1.329-1.247 1.319-2.109v-4.5l17.53-41.31h-16.54zm50.6 0 17.53 41.32v4.498c-0.011 0.864 0.49 1.668 1.32 2.109 0.412 0.213 0.872 0.324 1.339 0.324s0.927-0.111 1.34-0.324c0.829-0.441 1.33-1.247 1.319-2.109v-4.5l4.487-13.5c0.166-0.504 0.208-1.087 0-1.574l-10.8-26.24h-16.53z" fill="url(#paint3_linear)"/>
  <path d="m155.6 17v44.23c0 8.91 7.259 15.93 16.17 15.93l44.23-0.0112v-2l-60.4-58.15z" fill="#282828" opacity=".25"/>
  <path d="m155.6 15v44.23c0 8.91 7.259 15.93 16.17 15.93l44.23-0.0112-60.4-60.15z" fill="url(#paint4_linear)"/>
  <defs>
    <linearGradient id="paint0_linear" x1="39" x2="39" y1="186.5" y2="240.2" gradientUnits="userSpaceOnUse">
      <stop stop-color="#fabd2f" offset="1e-7"/>
      <stop stop-color="#fe8019" offset=".5"/>
      <stop stop-color="#fe8019" offset="1"/>
    </linearGradient>
    <linearGradient id="paint1_linear" x1="39" x2="39" y1="15" y2="240.2" gradientUnits="userSpaceOnUse">
      <stop stop-color="#fabd2f" offset="1e-7"/>
      <stop stop-color="#fe8019" offset=".5"/>
      <stop stop-color="#fe8019" offset="1"/>
    </linearGradient>
    <linearGradient id="paint2_linear" x1="39" x2="39" y1="187" y2="240" gradientUnits="userSpaceOnUse">
      <stop stop-color="#fabd2f" offset="1e-7"/>
      <stop stop-color="#fe8019" offset=".5"/>
      <stop stop-color="#fe8019" offset="1"/>
    </linearGradient>
    <linearGradient id="paint3_linear" x1="80" x2="80" y1="43" y2="163" gradientUnits="userSpaceOnUse">
      <stop stop-color="#fabd2f" offset="1e-7"/>
      <stop stop-color="#fe8019" offset=".5"/>
      <stop stop-color="#fe8019" offset="1"/>
    </linearGradient>
    <linearGradient id="paint4_linear" x1="155.6" x2="155.6" y1="15" y2="75.16" gradientUnits="userSpaceOnUse">
      <stop stop-color="#fabd2f" offset="1e-7"/>
      <stop stop-color="#fe8019" offset=".5"/>
      <stop stop-color="#fe8019" offset="1"/>
    </linearGradient>
  </defs>
</svg>
